X: 1
T: Hull's Victory  v.1
P: piffero primo a058
O: John Bray
%R: hornpipe, reel
F: http://ancients.sudburymuster.org/mus/ssp/pdf/NatthewsF.pdf
Z: 2019 John Chambers <jc:trillian.mit.edu>
M: 2/4
L: 1/16
K: D
A2 |\
dAdf dAdf | fedc d2FG | A2AB A2AG | FGEF D2A2 | dAdf dAdf |
e2e2 e2fe | dcBA ^GABG | A2A2 A2 :: A2 | dcde fedc | (B2G2) G2B2 |
edef gfed | (c2A2) A2Bc | dAdf dAdf | eAeg eAeg | fafd egec | d2d2 d2 :|
